art/standard/gamepad/vita/dpright.svg

<svg xmlns="http://www.w3.org/2000/svg" version="1.1" xmlns:xlink="http://www.w3.org/1999/xlink" preserveAspectRatio="none" x="0px" y="0px" width="100px" height="100px" viewBox="0 0 100 100">
<defs/>

<g id="PS_Vita">
<g>
<g>
<g>
<path fill="#353535" stroke="none" d="
M 34.55 70.2
L 34.55 92.75
Q 50.05 96.65 65.5 92.75
L 65.5 70.2 50 54.7 34.55 70.2
M 50 63.8
Q 50.6130859375 63.803515625 51.05 64.25
L 59.05 72.25
Q 59.49453125 72.683984375 59.5 73.3
L 59.5 86.6
Q 59.494921875 87.153515625 59.1 87.55 58.7681640625 87.9951171875 58.2 88.05 50.0330078125 89.2861328125 41.8 88.05 41.281640625 87.9951171875 40.9 87.55 40.555078125 87.153515625 40.55 86.6
L 40.55 73.3
Q 40.54453125 72.6880859375 40.95 72.25
L 48.9 64.25
Q 49.373046875 63.8044921875 50 63.8
M 29.85 34.55
L 7.25 34.55
Q 3.35 50.05 7.25 65.5
L 29.85 65.5 45.35 50.05 29.85 34.55
M 12.4 40.9
Q 12.846484375 40.555078125 13.4 40.55
L 26.75 40.55
Q 27.3658203125 40.5552734375 27.8 41
L 35.8 49
Q 36.2462890625 49.43671875 36.25 50.05 36.244921875 50.6650390625 35.8 51.1
L 27.8 59.05
Q 27.3865234375 59.49375 26.75 59.5
L 13.4 59.5
Q 12.846484375 59.494921875 12.4 59.1 12.0048828125 58.7681640625 11.9 58.2 10.7134765625 50.0330078125 11.9 41.8 12.0048828125 41.281640625 12.4 40.9
M 50.05 45.35
L 65.5 30 65.5 7.25
Q 50.05 3.35 34.55 7.25
L 34.55 29.85 50.05 45.35
M 41.8 11.9
Q 50.0328125 10.7140625 58.2 11.9 58.7681640625 12.0048828125 59.1 12.4 59.494921875 12.846484375 59.5 13.4
L 59.5 26.9
Q 59.4962890625 27.5283203125 59.05 27.95
L 51.1 35.85
Q 50.68828125 36.28125 50.05 36.25 49.4603515625 36.2677734375 49 35.8
L 41 27.8
Q 40.5552734375 27.3658203125 40.55 26.75
L 40.55 13.4
Q 40.555078125 12.8462890625 40.9 12.4 41.281640625 12.0048828125 41.8 11.9
M 70.05 34.55
L 65.5 30 50.05 45.35 34.55 29.85 29.85 34.55 45.35 50.05 29.85 65.5 34.55 70.2 50 54.7 65.5 70.2 65.5 70.15 70.15 65.5 70.2 65.5 54.7 50 70.05 34.55 Z"/>

<path fill="#535353" stroke="none" d="
M 51.05 64.25
Q 50.6130859375 63.803515625 50 63.8 49.373046875 63.8044921875 48.9 64.25
L 40.95 72.25
Q 40.54453125 72.6880859375 40.55 73.3
L 40.55 86.6
Q 40.555078125 87.153515625 40.9 87.55 41.281640625 87.9951171875 41.8 88.05 50.0330078125 89.2861328125 58.2 88.05 58.7681640625 87.9951171875 59.1 87.55 59.494921875 87.153515625 59.5 86.6
L 59.5 73.3
Q 59.49453125 72.683984375 59.05 72.25
L 51.05 64.25
M 45.5 76.65
L 54.5 76.65 49.95 82.85 45.5 76.65
M 13.4 40.55
Q 12.846484375 40.555078125 12.4 40.9 12.0048828125 41.281640625 11.9 41.8 10.7134765625 50.0330078125 11.9 58.2 12.0048828125 58.7681640625 12.4 59.1 12.846484375 59.494921875 13.4 59.5
L 26.75 59.5
Q 27.3865234375 59.49375 27.8 59.05
L 35.8 51.1
Q 36.244921875 50.6650390625 36.25 50.05 36.2462890625 49.43671875 35.8 49
L 27.8 41
Q 27.3658203125 40.5552734375 26.75 40.55
L 13.4 40.55
M 23.4 54.5
L 17.2 50.05 23.4 45.5 23.4 54.5
M 58.2 11.9
Q 50.0328125 10.7140625 41.8 11.9 41.281640625 12.0048828125 40.9 12.4 40.555078125 12.8462890625 40.55 13.4
L 40.55 26.75
Q 40.5552734375 27.3658203125 41 27.8
L 49 35.8
Q 49.4603515625 36.2677734375 50.05 36.25 50.68828125 36.28125 51.1 35.85
L 59.05 27.95
Q 59.4962890625 27.5283203125 59.5 26.9
L 59.5 13.4
Q 59.494921875 12.846484375 59.1 12.4 58.7681640625 12.0048828125 58.2 11.9
M 49.95 17.2
L 54.5 23.4 45.5 23.4 49.95 17.2 Z"/>

<path fill="#D6D6D6" stroke="none" d="
M 54.5 76.65
L 45.5 76.65 49.95 82.85 54.5 76.65
M 17.2 50.05
L 23.4 54.5 23.4 45.5 17.2 50.05
M 54.5 23.4
L 49.95 17.2 45.5 23.4 54.5 23.4 Z"/>

<path fill="#D7D7D7" stroke="none" d="
M 92.75 65.5
Q 96.65 50.05 92.75 34.55
L 70.05 34.55 54.7 50 70.2 65.5 92.75 65.5
M 87.55 40.9
Q 87.9951171875 41.281640625 88.05 41.8 89.2861328125 50.0330078125 88.05 58.2 87.9951171875 58.7681640625 87.55 59.1 87.153515625 59.494921875 86.6 59.5
L 73.3 59.5
Q 72.683984375 59.49453125 72.25 59.05
L 64.2 51
Q 63.78203125 50.5896484375 63.75 49.95 63.78046875 49.3623046875 64.2 48.9
L 72.1 41
Q 72.55859375 40.5544921875 73.15 40.55
L 86.6 40.55
Q 87.153515625 40.555078125 87.55 40.9 Z"/>

<path fill="#F5F5F5" stroke="none" d="
M 88.05 41.8
Q 87.9951171875 41.281640625 87.55 40.9 87.153515625 40.555078125 86.6 40.55
L 73.15 40.55
Q 72.55859375 40.5544921875 72.1 41
L 64.2 48.9
Q 63.78046875 49.3623046875 63.75 49.95 63.78203125 50.5896484375 64.2 51
L 72.25 59.05
Q 72.683984375 59.49453125 73.3 59.5
L 86.6 59.5
Q 87.153515625 59.494921875 87.55 59.1 87.9951171875 58.7681640625 88.05 58.2 89.2861328125 50.0330078125 88.05 41.8
M 76.65 54.5
L 76.65 45.5 82.85 50.05 76.65 54.5 Z"/>

<path fill="#616161" stroke="none" d="
M 76.65 45.5
L 76.65 54.5 82.85 50.05 76.65 45.5 Z"/>
</g>
</g>

<g>
<path stroke="#616161" stroke-width="4" stroke-linejoin="round" stroke-linecap="round" fill="none" d="
M 58.225 11.925
Q 58.7681640625 12.0048828125 59.125 12.425 59.494921875 12.846484375 59.5 13.4
L 59.5 26.9
Q 59.4962890625 27.5283203125 59.05 27.975
L 51.125 35.85
Q 50.68828125 36.28125 50.075 36.275 49.4603515625 36.2677734375 49.025 35.825
L 41 27.8
Q 40.5552734375 27.3658203125 40.55 26.75
L 40.55 13.4
Q 40.555078125 12.8462890625 40.925 12.425 41.281640625 12.0048828125 41.825 11.925 50.0328125 10.7140625 58.225 11.925 Z
M 13.4 40.55
L 26.75 40.55
Q 27.3658203125 40.5552734375 27.8 41
L 35.8 49
Q 36.2462890625 49.43671875 36.25 50.05 36.244921875 50.6650390625 35.8 51.1
L 27.825 59.05
Q 27.3865234375 59.49375 26.775 59.5
L 13.4 59.5
Q 12.846484375 59.494921875 12.425 59.125 12.0048828125 58.7681640625 11.925 58.225 10.7134765625 50.0330078125 11.925 41.825 12.0048828125 41.281640625 12.425 40.925 12.846484375 40.555078125 13.4 40.55 Z
M 51.05 64.25
L 59.05 72.25
Q 59.49453125 72.683984375 59.5 73.3
L 59.5 86.6
Q 59.494921875 87.153515625 59.125 87.575 58.7681640625 87.9951171875 58.225 88.075 50.0330078125 89.2861328125 41.825 88.075 41.281640625 87.9951171875 40.925 87.575 40.555078125 87.153515625 40.55 86.6
L 40.55 73.3
Q 40.54453125 72.6880859375 40.975 72.25
L 48.925 64.25
Q 49.373046875 63.8044921875 50 63.8 50.6130859375 63.803515625 51.05 64.25 Z"/>
</g>

<g>
<path stroke="#202020" stroke-width="5" stroke-linejoin="round" stroke-linecap="round" fill="none" d="
M 70.175 65.5
L 65.5 70.175 65.5 70.2 65.5 92.75
Q 50.05 96.65 34.55 92.75
L 34.55 70.2 29.85 65.5 7.25 65.5
Q 3.35 50.05 7.25 34.55
L 29.85 34.55 34.55 29.85 34.55 7.25
Q 50.05 3.35 65.5 7.25
L 65.5 30 70.05 34.55
M 65.5 30
L 50.075 45.375 34.55 29.85
M 34.55 70.2
L 50 54.7 65.5 70.2
M 29.85 34.55
L 45.375 50.075 29.85 65.5"/>
</g>

<g>
<path stroke="#404040" stroke-width="5" stroke-linejoin="round" stroke-linecap="round" fill="none" d="
M 70.05 34.55
L 92.75 34.55
Q 96.65 50.05 92.75 65.5
L 70.2 65.5 70.175 65.5
M 70.05 34.55
L 54.7 50 70.2 65.5"/>
</g>

<g>
<path stroke="#FFFFFF" stroke-width="4" stroke-linejoin="round" stroke-linecap="round" fill="none" d="
M 88.075 41.825
Q 89.2861328125 50.0330078125 88.075 58.225 87.9951171875 58.7681640625 87.575 59.125 87.153515625 59.494921875 86.6 59.5
L 73.3 59.5
Q 72.683984375 59.49453125 72.25 59.05
L 64.225 51.025
Q 63.78203125 50.5896484375 63.775 49.975 63.78046875 49.3623046875 64.225 48.925
L 72.125 41
Q 72.55859375 40.5544921875 73.175 40.55
L 86.6 40.55
Q 87.153515625 40.555078125 87.575 40.925 87.9951171875 41.281640625 88.075 41.825 Z"/>
</g>
</g>
</g>
</svg>

<svg width="100px" height="100px" preserveAspectRatio="none" version="1.1" viewBox="0 0 100 100" xmlns="http://www.w3.org/2000/svg">
 <path d="m70.199 65.5-15.5-15.5 15.352-15.449-4.5508-4.5508v-22.75c-10.3-2.6-20.616-2.6-30.949 0v22.6l-4.7012 4.7012h-22.6c-2.6 10.333-2.6 20.649 0 30.949h22.6l4.7012 4.6992v22.551c10.333 2.6 20.649 2.6 30.949 0v-22.551zm-10.699-52.1v13.5c0 0.43333-0.14922 0.79961-0.44922 1.0996l-7.9004 7.8496c-0.3 0.3-0.65078 0.45117-1.0508 0.45117-0.43333-0.03333-0.78216-0.1845-1.0488-0.45117l-8.0508-8.0488c-0.3-0.3-0.44922-0.65078-0.44922-1.0508v-13.35c0-0.36667 0.13177-0.68451 0.39844-0.95117 0.23333-0.3 0.53372-0.46667 0.90039-0.5 5.4667-0.83333 10.934-0.83333 16.4 0 0.33333 0.03333 0.63372 0.2 0.90039 0.5 0.23333 0.26667 0.34961 0.5845 0.34961 0.95117zm0 59.9v13.299c0 0.36667-0.11628 0.7-0.34961 1-0.26667 0.26667-0.56706 0.43333-0.90039 0.5-5.4667 0.8-10.934 0.8-16.4 0-0.36667-0.06667-0.66706-0.23333-0.90039-0.5-0.26667-0.3-0.39844-0.63333-0.39844-1v-13.299c0-0.4 0.14922-0.75078 0.44922-1.0508l7.9492-8c0.26667-0.3 0.61745-0.44922 1.0508-0.44922 0.4 0 0.75078 0.14922 1.0508 0.44922l8 8c0.3 0.3 0.44922 0.65078 0.44922 1.0508zm-23.25-23.25c0 0.4-0.14922 0.74883-0.44922 1.0488l-7.9512 7.9512c-0.3 0.3-0.64883 0.44922-1.0488 0.44922h-13.4c-0.36667 0-0.68451-0.11628-0.95117-0.34961-0.3-0.26667-0.46667-0.56706-0.5-0.90039-0.83333-5.4667-0.83333-10.934 0-16.4 0.03333-0.36667 0.2-0.66706 0.5-0.90039 0.26667-0.26667 0.5845-0.39844 0.95117-0.39844h13.35c0.4 0 0.75078 0.14922 1.0508 0.44922l8 8c0.3 0.3 0.44922 0.65078 0.44922 1.0508z" fill="#353535"/>
 <path d="m36.25 50.05c0-0.4-0.15-0.75-0.45-1.05l-8-8c-0.3-0.3-0.65-0.45-1.05-0.45h-13.35c-0.36667 0-0.68333 0.13333-0.95 0.4-0.3 0.23333-0.46667 0.53333-0.5 0.9-0.83333 5.4667-0.83333 10.933 0 16.4 0.03333 0.33333 0.2 0.63333 0.5 0.9 0.26667 0.23333 0.58333 0.35 0.95 0.35h13.4c0.4 0 0.75-0.15 1.05-0.45l7.95-7.95c0.3-0.3 0.45-0.65 0.45-1.05m23.25-23.15v-13.5c0-0.36667-0.11667-0.68333-0.35-0.95-0.26667-0.3-0.56667-0.46667-0.9-0.5-5.4667-0.83333-10.933-0.83333-16.4 0-0.36667 0.03333-0.66667 0.2-0.9 0.5-0.26667 0.26667-0.4 0.58333-0.4 0.95v13.35c0 0.4 0.15 0.75 0.45 1.05l8.05 8.05c0.26667 0.26667 0.61667 0.41667 1.05 0.45 0.4 0 0.75-0.15 1.05-0.45l7.9-7.85c0.3-0.3 0.45-0.66667 0.45-1.1m-0.35 60.7c0.23333-0.3 0.35-0.63333 0.35-1v-13.3c0-0.4-0.15-0.75-0.45-1.05l-8-8c-0.3-0.3-0.65-0.45-1.05-0.45-0.43333 0-0.78333 0.15-1.05 0.45l-7.95 8c-0.3 0.3-0.45 0.65-0.45 1.05v13.3c0 0.36667 0.13333 0.7 0.4 1 0.23333 0.26667 0.53333 0.43333 0.9 0.5 5.4667 0.8 10.933 0.8 16.4 0 0.33333-0.06667 0.63333-0.23333 0.9-0.5" fill="#535353" stroke="#616161" stroke-linecap="round" stroke-linejoin="round" stroke-width="4"/>
 <path d="m23.4 54.5v-9l-6.2 4.55 6.2 4.45m26.55-37.3-4.45 6.2h9l-4.55-6.2m4.55 59.45h-9l4.45 6.2z" fill="#d6d6d6"/>
 <path d="m70.2 65.5h22.55c2.6-10.3 2.6-20.617 0-30.95h-22.7l-15.35 15.45 15.5 15.5" fill="#d7d7d7"/>
 <path d="m87.6 40.95c-0.3-0.26667-0.63333-0.4-1-0.4h-13.4c-0.43333 0-0.78333 0.15-1.05 0.45l-7.9 7.95c-0.3 0.26667-0.45 0.61667-0.45 1.05 0 0.4 0.15 0.75 0.45 1.05l8 8c0.3 0.3 0.65 0.45 1.05 0.45h13.3c0.36667 0 0.7-0.11667 1-0.35 0.26667-0.26667 0.43333-0.56667 0.5-0.9 0.8-5.4667 0.8-10.933 0-16.4-0.06667-0.36667-0.23333-0.66667-0.5-0.9" fill="#f5f5f5" stop-color="#000000" stroke="#fff" stroke-linecap="round" stroke-linejoin="round" stroke-width="4" style="-inkscape-stroke:none;font-variation-settings:normal"/>
 <path d="m82.85 50.05-6.2-4.55v9z" fill="#616161"/>
 <path d="m70.2 65.5-4.7 4.7v22.55q-15.45 3.9-30.95 0v-22.55l-4.7-4.7h-22.6q-3.9-15.45 0-30.95h22.6l4.7-4.7v-22.6q15.5-3.9 30.95 0v22.75l4.55 4.55m-35.5 35.65 15.45-15.5 15.5 15.5m-35.65-4.7 15.55-15.4-15.55-15.55m35.65-4.55-15.4 15.4-15.55-15.55" fill="none" stroke="#202020" stroke-linecap="round" stroke-linejoin="round" stroke-width="5"/>
 <path d="m70.05 34.55h22.7q3.9 15.5 0 30.95h-22.55l-15.5-15.5z" fill="none" stroke="#404040" stroke-linecap="round" stroke-linejoin="round" stroke-width="5"/>
</svg>
